Yaru++/status/scalable/software-update-available.svg

<svg height="256" viewBox="0 0 67.73 67.73" width="256" xmlns="http://www.w3.org/2000/svg" xmlns:xlink="http://www.w3.org/1999/xlink"><filter id="a" color-interpolation-filters="sRGB" height="1.019385" width="1.0315" x="-.01575" y="-.009692"><feGaussianBlur stdDeviation=".52499999"/></filter><linearGradient id="b" gradientUnits="userSpaceOnUse" x1="-46.49876176" x2="-21.100012" y1="-63.29791536" y2="-4.03416592"><stop offset="0" stop-color="#319741"/><stop offset="1" stop-color="#0e8420"/></linearGradient><filter id="c" color-interpolation-filters="sRGB" height="1.096" width="1.096" x="-.048" y="-.048"><feGaussianBlur stdDeviation="4.48"/></filter><filter id="d" color-interpolation-filters="sRGB" height="1.024" width="1.024" x="-.012" y="-.012"><feGaussianBlur stdDeviation="1.12"/></filter><circle cx="122.752" cy="122.752" filter="url(#d)" opacity=".1" r="112" transform="matrix(.26457031 0 0 .26457031 1.322852 1.454082)"/><circle cx="122.752" cy="122.752" filter="url(#c)" opacity=".2" r="112" transform="matrix(.26457031 0 0 .26457031 1.322852 1.454082)"/><circle cx="-33.799389" cy="-33.666042" fill="url(#b)" r="29.631874" transform="scale(-1)"/><path d="m4.1675119 35.782609a29.773288 30.266831 0 0 0 29.6259301 27.515313 29.773288 30.266831 0 0 0 29.63782-27.515313z" fill="#fff" opacity=".1"/><g enable-background="new" transform="matrix(.26457031 0 0 .26457031 -6.084588 -10.021589)"><path d="m152.47725 90.999985c21.38251 32.907525 32.34331 67.535295 39.52275 83.126745h-24.25062v46.87325h-30.54426v-46.87325h-25.20512c7.17637-15.59051 19.09474-50.21891 40.47725-83.126745z" filter="url(#a)" opacity=".1"/><path d="m152.47725 90.000005c21.38251 32.907525 32.34331 67.535295 39.52275 83.126745h-24.25062v46.87325h-30.54426v-46.87325h-25.20512c7.17637-15.59051 19.09474-50.21891 40.47725-83.126745z" fill="#f7f7f7"/></g><path d="m33.799387 63.297919a29.631875 29.631875 0 0 1 -29.6318751-29.631875 29.631875 29.631875 0 0 1 .01085-.309526 29.631875 29.631875 0 0 0 29.6210221 29.41226 29.631875 29.631875 0 0 0 29.621022-29.322348 29.631875 29.631875 0 0 1 .01085.219614 29.631875 29.631875 0 0 1 -29.631875 29.631875z" opacity=".2"/><path d="m33.799387 4.03417a29.631875 29.631875 0 0 0 -29.6318751 29.631874 29.631875 29.631875 0 0 0 .010853.309526 29.631875 29.631875 0 0 1 29.6210221-29.412259 29.631875 29.631875 0 0 1 29.621022 29.322348 29.631875 29.631875 0 0 0 .010848-.219615 29.631875 29.631875 0 0 0 -29.631875-29.631874z" fill="#fff" opacity=".3"/></svg>

<?xml version="1.0" encoding="UTF-8" standalone="no"?>
<svg
   xmlns:dc="http://purl.org/dc/elements/1.1/"
   xmlns:cc="http://creativecommons.org/ns#"
   xmlns:rdf="http://www.w3.org/1999/02/22-rdf-syntax-ns#"
   xmlns:svg="http://www.w3.org/2000/svg"
   xmlns="http://www.w3.org/2000/svg"
   xmlns:xlink="http://www.w3.org/1999/xlink"
   xmlns:sodipodi="http://sodipodi.sourceforge.net/DTD/sodipodi-0.dtd"
   xmlns:inkscape="http://www.inkscape.org/namespaces/inkscape"
   height="256"
   viewBox="0 0 67.73 67.73"
   width="256"
   version="1.1"
   id="svg36"
   sodipodi:docname="software-update-available.svg"
   inkscape:version="0.92.4 (5da689c313, 2019-01-14)">
  <metadata
     id="metadata42">
    <rdf:RDF>
      <cc:Work
         rdf:about="">
        <dc:format>image/svg+xml</dc:format>
        <dc:type
           rdf:resource="http://purl.org/dc/dcmitype/StillImage" />
      </cc:Work>
    </rdf:RDF>
  </metadata>
  <defs
     id="defs40">
    <filter
       inkscape:collect="always"
       style="color-interpolation-filters:sRGB"
       id="filter10875"
       x="-0.01575"
       width="1.0315"
       y="-0.0096923076"
       height="1.0193846">
      <feGaussianBlur
         inkscape:collect="always"
         stdDeviation="0.52499999"
         id="feGaussianBlur10877" />
    </filter>
    <linearGradient
       inkscape:collect="always"
       xlink:href="#linearGradient10935"
       id="linearGradient11065"
       x1="104"
       y1="44"
       x2="200"
       y2="268"
       gradientUnits="userSpaceOnUse"
       gradientTransform="matrix(0.26457031,0,0,0.26457031,-74.014074,-74.939009)" />
    <linearGradient
       id="linearGradient10935">
      <stop
         id="stop10931"
         offset="0"
         style="stop-color:#319741;stop-opacity:1" />
      <stop
         id="stop10933"
         offset="1"
         style="stop-color:#0e8420;stop-opacity:1" />
    </linearGradient>
    <filter
       inkscape:collect="always"
       style="color-interpolation-filters:sRGB"
       id="filter48952"
       x="-0.048"
       width="1.096"
       y="-0.048"
       height="1.096">
      <feGaussianBlur
         inkscape:collect="always"
         stdDeviation="4.48"
         id="feGaussianBlur48954" />
    </filter>
    <filter
       inkscape:collect="always"
       style="color-interpolation-filters:sRGB"
       id="filter48967"
       x="-0.012"
       width="1.024"
       y="-0.012"
       height="1.024">
      <feGaussianBlur
         inkscape:collect="always"
         stdDeviation="1.12"
         id="feGaussianBlur48969" />
    </filter>
  </defs>
  <sodipodi:namedview
     pagecolor="#ffffff"
     bordercolor="#666666"
     borderopacity="1"
     objecttolerance="10"
     gridtolerance="10"
     guidetolerance="10"
     inkscape:pageopacity="0"
     inkscape:pageshadow="2"
     inkscape:window-width="796"
     inkscape:window-height="480"
     id="namedview38"
     showgrid="false"
     inkscape:zoom="0.921875"
     inkscape:cx="128"
     inkscape:cy="128"
     inkscape:window-x="340"
     inkscape:window-y="27"
     inkscape:window-maximized="0"
     inkscape:current-layer="svg36" />
  <linearGradient
     id="a"
     gradientUnits="userSpaceOnUse"
     x1="88"
     x2="488"
     y1="88"
     y2="488">
    <stop
       offset="0"
       stop-opacity=".588235"
       id="stop2" />
    <stop
       offset="1"
       stop-opacity=".205556"
       id="stop4" />
  </linearGradient>
  <filter
     id="b"
     color-interpolation-filters="sRGB"
     height="1.088"
     width="1.106"
     x="-.05"
     y="-.04">
    <feGaussianBlur
       stdDeviation="8.48"
       id="feGaussianBlur7" />
  </filter>
  <filter
     id="c"
     color-interpolation-filters="sRGB"
     height="1.022"
     width="1.026"
     x="-.01"
     y="-.01">
    <feGaussianBlur
       stdDeviation="2.12"
       id="feGaussianBlur10" />
  </filter>
  <filter
     id="d"
     color-interpolation-filters="sRGB"
     height="1.121"
     width="1.119"
     x="-.06"
     y="-.06">
    <feGaussianBlur
       stdDeviation="3.909"
       id="feGaussianBlur13" />
  </filter>
  <circle
     style="display:inline;opacity:0.1;fill:#000000;fill-opacity:1;stroke:none;stroke-width:1;stroke-linecap:round;stroke-linejoin:round;stroke-miterlimit:4;stroke-dasharray:none;stroke-opacity:1;filter:url(#filter48967);enable-background:new"
     id="path11042-4"
     r="112"
     cy="122.752"
     cx="122.752"
     transform="matrix(0.26457031,0,0,0.26457031,1.3228519,1.454082)" />
  <circle
     style="display:inline;opacity:0.2;fill:#000000;fill-opacity:1;stroke:none;stroke-width:1;stroke-linecap:round;stroke-linejoin:round;stroke-miterlimit:4;stroke-dasharray:none;stroke-opacity:1;filter:url(#filter48952);enable-background:new"
     id="path11042-9"
     r="112"
     cy="122.752"
     cx="122.752"
     transform="matrix(0.26457031,0,0,0.26457031,1.3228519,1.454082)" />
  <circle
     style="display:inline;opacity:1;fill:url(#linearGradient11065);fill-opacity:1;stroke:none;stroke-width:0.26457033;stroke-linecap:round;stroke-linejoin:round;stroke-miterlimit:4;stroke-dasharray:none;stroke-opacity:1;enable-background:new"
     id="path11042"
     r="29.631874"
     cy="-33.666042"
     cx="-33.799389"
     transform="scale(-1)" />
  <path
     style="display:inline;opacity:0.1;fill:#ffffff;fill-opacity:1;stroke:none;stroke-width:2.84537816;stroke-linecap:round;stroke-linejoin:round;stroke-miterlimit:4;stroke-dasharray:none;stroke-opacity:1;enable-background:new"
     d="M 4.1675119,35.782609 A 29.773288,30.266831 0 0 0 33.793442,63.297922 29.773288,30.266831 0 0 0 63.431262,35.782609 Z"
     id="rect12119"
     inkscape:connector-curvature="0" />
  <g
     style="display:inline;enable-background:new"
     id="g10881"
     transform="matrix(0.26457031,0,0,0.26457031,-6.0845875,-10.021589)">
    <path
       id="path913"
       d="M 152.47725,90.999985 C 173.85976,123.90751 184.82056,158.53528 192,174.12673 h -24.25062 v 46.87325 H 137.20512 V 174.12673 H 112 c 7.17637,-15.59051 19.09474,-50.21891 40.47725,-83.126745 z"
       style="color:#000000;font-style:normal;font-variant:normal;font-weight:normal;font-stretch:normal;font-size:medium;line-height:normal;font-family:sans-serif;font-variant-ligatures:normal;font-variant-position:normal;font-variant-caps:normal;font-variant-numeric:normal;font-variant-alternates:normal;font-feature-settings:normal;text-indent:0;text-align:start;text-decoration:none;text-decoration-line:none;text-decoration-style:solid;text-decoration-color:#000000;letter-spacing:normal;word-spacing:normal;text-transform:none;writing-mode:lr-tb;direction:ltr;text-orientation:mixed;dominant-baseline:auto;baseline-shift:baseline;text-anchor:start;white-space:normal;shape-padding:0;clip-rule:nonzero;display:inline;overflow:visible;visibility:visible;opacity:0.1;isolation:auto;mix-blend-mode:normal;color-interpolation:sRGB;color-interpolation-filters:linearRGB;solid-color:#000000;solid-opacity:1;vector-effect:none;fill:#000000;fill-opacity:1;fill-rule:nonzero;stroke:none;stroke-width:1.54472721;stroke-linecap:butt;stroke-linejoin:miter;stroke-miterlimit:4;stroke-dasharray:none;stroke-dashoffset:0;stroke-opacity:1;marker:none;filter:url(#filter10875);color-rendering:auto;image-rendering:auto;shape-rendering:auto;text-rendering:auto;enable-background:accumulate"
       inkscape:connector-curvature="0"
       sodipodi:nodetypes="cccccccc" />
    <path
       sodipodi:nodetypes="cccccccc"
       inkscape:connector-curvature="0"
       style="color:#000000;font-style:normal;font-variant:normal;font-weight:normal;font-stretch:normal;font-size:medium;line-height:normal;font-family:sans-serif;font-variant-ligatures:normal;font-variant-position:normal;font-variant-caps:normal;font-variant-numeric:normal;font-variant-alternates:normal;font-feature-settings:normal;text-indent:0;text-align:start;text-decoration:none;text-decoration-line:none;text-decoration-style:solid;text-decoration-color:#000000;letter-spacing:normal;word-spacing:normal;text-transform:none;writing-mode:lr-tb;direction:ltr;text-orientation:mixed;dominant-baseline:auto;baseline-shift:baseline;text-anchor:start;white-space:normal;shape-padding:0;clip-rule:nonzero;display:inline;overflow:visible;visibility:visible;opacity:1;isolation:auto;mix-blend-mode:normal;color-interpolation:sRGB;color-interpolation-filters:linearRGB;solid-color:#000000;solid-opacity:1;vector-effect:none;fill:#f7f7f7;fill-opacity:1;fill-rule:nonzero;stroke:none;stroke-width:1.54472721;stroke-linecap:butt;stroke-linejoin:miter;stroke-miterlimit:4;stroke-dasharray:none;stroke-dashoffset:0;stroke-opacity:1;marker:none;color-rendering:auto;image-rendering:auto;shape-rendering:auto;text-rendering:auto;enable-background:accumulate"
       d="M 152.47725,90.000005 C 173.85976,122.90753 184.82056,157.5353 192,173.12675 H 167.74938 V 220 H 137.20512 V 173.12675 H 112 c 7.17637,-15.59051 19.09474,-50.21891 40.47725,-83.126745 z"
       id="path10681" />
  </g>
  <path
     inkscape:connector-curvature="0"
     style="display:inline;opacity:0.2;fill:#000000;fill-opacity:1;stroke:none;stroke-width:0.26457033;stroke-linecap:round;stroke-linejoin:round;stroke-miterlimit:4;stroke-dasharray:none;stroke-opacity:1;enable-background:new"
     d="M 33.799387,63.297919 A 29.631875,29.631875 0 0 1 4.1675119,33.666044 a 29.631875,29.631875 0 0 1 0.01085,-0.309526 29.631875,29.631875 0 0 0 29.6210221,29.41226 29.631875,29.631875 0 0 0 29.621022,-29.322348 29.631875,29.631875 0 0 1 0.01085,0.219614 29.631875,29.631875 0 0 1 -29.631875,29.631875 z"
     id="path11042-1-7" />
  <path
     style="display:inline;opacity:0.3;fill:#ffffff;fill-opacity:1;stroke:none;stroke-width:0.26457033;stroke-linecap:round;stroke-linejoin:round;stroke-miterlimit:4;stroke-dasharray:none;stroke-opacity:1;enable-background:new"
     d="M 33.799387,4.03417 A 29.631875,29.631875 0 0 0 4.1675119,33.666044 29.631875,29.631875 0 0 0 4.1783649,33.97557 29.631875,29.631875 0 0 1 33.799387,4.563311 29.631875,29.631875 0 0 1 63.420409,33.885659 29.631875,29.631875 0 0 0 63.431257,33.666044 29.631875,29.631875 0 0 0 33.799382,4.03417 Z"
     id="path11042-1"
     inkscape:connector-curvature="0" />
</svg>
